_includes/icons/ios-sheets-of-paper-with-a-question-mark.svg

<svg fill="#666" height="50" viewBox="0 0 50 50" width="50" xmlns="http://www.w3.org/2000/svg"><path d="m5.8125 0c-.476562.0898438-.820312.511719-.8125 1v44c0 .550781.449219 1 1 1h3v3c0 .550781.449219 1 1 1h34c.550781 0 1-.449219 1-1v-44c0-.550781-.449219-1-1-1h-3v-3c0-.550781-.449219-1-1-1h-34c-.03125 0-.0625 0-.09375 0s-.0625 0-.09375 0zm1.1875 2h32v42h-32zm34 4h2v42h-32v-2h29c.550781 0 1-.449219 1-1zm-17.8125 4.5c-3.699219 0-6.1875 2.289063-6.6875 5.6875 0 .199219.113281.40625.3125.40625l2.28125.40625c.199219 0 .40625-.113281.40625-.3125.398438-2.199219 1.6875-3.375 3.6875-3.375 2.101563 0 3.5 1.28125 3.5 3.28125 0 1.300781-.386719 2.113281-1.6875 3.8125l-2.40625 3.28125c-.800781 1-1.09375 1.820313-1.09375 3.21875v1.5c0 .199219.210938.40625.3125.40625h2.375c.300781 0 .40625-.207031.40625-.40625v-1.09375c0-1.199219.207031-1.71875.90625-2.71875l2.40625-3.28125c1.199219-1.699219 1.78125-3.019531 1.78125-4.71875 0-3.601562-2.601562-6.09375-6.5-6.09375zm-1.375 21c-.300781 0-.40625.207031-.40625.40625v3.09375c0 .300781.207031.40625.40625.40625h2.6875c.300781 0 .40625-.207031.40625-.40625v-3.09375c0-.300781-.207031-.40625-.40625-.40625z"/></svg>

<svg xmlns="http://www.w3.org/2000/svg" viewBox="0 0 50 50" width="50" height="50" fill="#666"><path d="M 5.8125 0 C 5.335938 0.0898438 4.992188 0.511719 5 1 L 5 45 C 5 45.550781 5.449219 46 6 46 L 9 46 L 9 49 C 9 49.550781 9.449219 50 10 50 L 44 50 C 44.550781 50 45 49.550781 45 49 L 45 5 C 45 4.449219 44.550781 4 44 4 L 41 4 L 41 1 C 41 0.449219 40.550781 0 40 0 L 6 0 C 5.96875 0 5.9375 0 5.90625 0 C 5.875 0 5.84375 0 5.8125 0 Z M 7 2 L 39 2 L 39 44 L 7 44 Z M 41 6 L 43 6 L 43 48 L 11 48 L 11 46 L 40 46 C 40.550781 46 41 45.550781 41 45 Z M 23.1875 10.5 C 19.488281 10.5 17 12.789063 16.5 16.1875 C 16.5 16.386719 16.613281 16.59375 16.8125 16.59375 L 19.09375 17 C 19.292969 17 19.5 16.886719 19.5 16.6875 C 19.898438 14.488281 21.1875 13.3125 23.1875 13.3125 C 25.289063 13.3125 26.6875 14.59375 26.6875 16.59375 C 26.6875 17.894531 26.300781 18.707031 25 20.40625 L 22.59375 23.6875 C 21.792969 24.6875 21.5 25.507813 21.5 26.90625 L 21.5 28.40625 C 21.5 28.605469 21.710938 28.8125 21.8125 28.8125 L 24.1875 28.8125 C 24.488281 28.8125 24.59375 28.605469 24.59375 28.40625 L 24.59375 27.3125 C 24.59375 26.113281 24.800781 25.59375 25.5 24.59375 L 27.90625 21.3125 C 29.105469 19.613281 29.6875 18.292969 29.6875 16.59375 C 29.6875 12.992188 27.085938 10.5 23.1875 10.5 Z M 21.8125 31.5 C 21.511719 31.5 21.40625 31.707031 21.40625 31.90625 L 21.40625 35 C 21.40625 35.300781 21.613281 35.40625 21.8125 35.40625 L 24.5 35.40625 C 24.800781 35.40625 24.90625 35.199219 24.90625 35 L 24.90625 31.90625 C 24.90625 31.605469 24.699219 31.5 24.5 31.5 Z"/></svg>
